!!!Genre:	Skotshne
!!!Mode:	Minor
!!!Listening/dance:	listening
!!!:	*B-:
!!!One_Mode:	no
**kern
*thru
*I"P1
*clefG2
*k[b-e-]
*g:
*M2/4
*>A
=1
(8dL
8gJ)
8dL
8aJ
=2
8dL
[8b-J
16b-LL]
16cc
16b-
16aJJ
=3
(8gL
8gg)
(8f
8ffJ)
=4
(8e-L
8ee-J)
16ddLL
16cc
16b-
16aJJ
=5
(8dL
8gJ)
(8dL
8aJ)
=6
8dL
[8b-J
16b-LL]
16cc
16b-
16aJJ
=7
(8gL
8ggJ)
16ffLL
16ee-
16dd
16ccJJ
=8
16.b-LL
32cck
16.a
32b-JJk
4g
=9:|!|:
*>B
4.aa
8dd
=10
(qaa/
16.ggLL)
32ff#Xk
16.gg
32aaJJk
8bb-L
8ggJ
=11
8aaL
8dddJ
(8qddd/
4dd)
=12
(8qaa/
16ggLL)
16ff#X
16gg
16aaJJ
8bb-L
8ggJ
=13
4.gg
8dd
=14
16ffLL
16ee-
16dd
16ee-JJ
8ddL
8b-J
=15
16.ddLL
32b-k
16.dd
32ccJJk
16.b-LL
32cck
16.a
32b-JJk
=16
4g
4r
=17:|!
*>C
8fL
[8ffJ
16ffLL]
16ee-
16dd
16ccJJ
=18
16ccLL
16ee-J
8ddJ
8r
8b-
=19
(16b-LL
16ddJ)
8ccJ
(16aLL
16ccJ)
8b-J
=20
(16f#XLL
16aJ
8gJ)
8r
8fn
=21
(8fL
[8ffnJ)
16ffLL]
16ee-
16dd
16ccJJ
=22
(16ccLL
16ee-J)
8ddJ
8r
8a
=23
8aL
8aaJ
12eenL
12aa
12ggJ
=24
(16ggLL
16ffJ)
8ffJ
8r
8f
=25
8fL
[8ffJ
16ffLL]
16ee-
16dd
16ccJJ
=26
(16ccLL
16ee-J
8ddJ)
8r
8dd
=27
8ddL
[8dddJ
16dddLL]
16dd
16ddd
16cccJJ
=28
16.bb-LL
32ccck
16.aa
32bb-JJk
4gg
*:>bM
*B-:
!LO:TX:a:i:t=Bb-major
=29||
*>D
8fL
16gL
16aJJ
16b-LL
16cc
16dd
16eenJJ
=30
16ffLL
16een
16gg
16ffJJ
4ff
=31
16ee-XLL
(16cc
16ff)
16ee-JJ
4ee-
=32
16ccLL
16a
16ff
16ee-JJ
4dd
=33
8fL
16gL
16aJJ
16b-LL
16cc
16dd
16eenJJ
=34
16ffLL
(16een
16gg)
16ffJJ
4ff
=35
8ffL
16dddL
16bb-JJ
16ffLL
16dd
16a
16b-JJ
=36
(16ccLL
16b-JJ)
8b-
8r
=||
*>eM
*g:
*>E
!LO:TX:a:i:t=G-minor
8dd
=37
(8.bb-L
16aaJk)
(8.bb-L
16aaJk)
=38
(16aaLL
16ggJ)
8ggJ
8r
8gg
=39
8.aaL
16ggJk
8.aaL
16ggJk
=40
(16ggLL
16ff#XJ)
8ff#J
8r
*>bM
*D:frey
!LO:TX:a:i:t=D-freygish
8ff#
=41
(16ff#XLL
16gg)
(16gg
16aaJJ)
(16aaLL
16bb-)
(16bb-
16cccJJ)
=42
(16cccLL
16bb-)
(16bb-
16aaJJ)
(16aaLL
16gg)
(16gg
16ff#XJJ)
=43
8ff#XL
24ee-L
24dd
24ee-JJ
8.ff#L
16ee-Jk
=44
16ee-LL
16ddJ
8ddJ
8r
*>eM
*g:
!LO:TX:a:i:t=G-minor
8dd
*>F
=45!|:
(8.bb-L
16aaJk)
(8.bb-L
16aaJk)
=46
16aaLL
16ggJJ
4gg
8gg
=47
8.aaL
16ggJk
8.aaL
16ggJk
=48
16ggLL
16ff#XJ
8ff#J
8r
8ff#
=49
(16ff#XLL
16gg)
(16gg
16aaJJ)
(16aaLL
16bb-)
(16bb-
16cccJJ)
=50
(16cccLL
16ddd)
(16ddd
16eee-JJ)
16eee-LL
16ddd
16ccc
16bb-JJ
=51
16aaLL
16gg
16ff#X
16ee-JJ
16ddLL
16cc
16b-
16aJJ
*>F1
=52
16aLL
16b-J
8gJ
8r
8dd
*>F2
=53:|!
(16aLL
16b-J)
8gJ
4r
==
*-
